static/assets/images/exchanges/metropolis.svg

<svg width="393" height="256" viewBox="0 0 393 256" fill="none" xmlns="http://www.w3.org/2000/svg">
<path d="M28.5817 156.862C27.813 155.811 27.2992 154.596 27.081 153.312C26.8628 152.028 26.9462 150.712 27.3245 149.466L72.1388 5.91673C72.6805 4.20256 73.7535 2.70525 75.2027 1.64157C76.6519 0.577888 78.4019 0.00303313 80.1995 0.00022592H170.826C172.167 -0.00958885 173.491 0.30052 174.688 0.904813C175.885 1.50911 176.92 2.39016 177.708 3.47484C178.496 4.55952 179.014 5.81654 179.219 7.14159C179.424 8.46663 179.311 9.82148 178.887 11.0937L134.073 154.384C133.536 156.101 132.464 157.602 131.014 158.666C129.564 159.731 127.811 160.303 126.012 160.301H35.3852C34.0597 160.308 32.7515 160 31.5685 159.402C30.3855 158.804 29.3617 157.933 28.5817 156.862ZM157.109 139.963C156.337 138.913 155.822 137.698 155.604 136.414C155.385 135.13 155.47 133.812 155.851 132.567L179.811 55.8372C180.353 54.1231 181.426 52.6258 182.875 51.5621C184.325 50.4984 186.075 49.9235 187.872 49.9207H245.184C246.525 49.9109 247.849 50.221 249.045 50.8253C250.242 51.4296 251.278 52.3107 252.066 53.3953C252.854 54.48 253.372 55.7371 253.577 57.0621C253.782 58.3871 253.668 59.742 253.245 61.0142L229.211 137.448C228.669 139.172 227.591 140.679 226.135 141.749C224.679 142.82 222.92 143.398 221.113 143.402H163.912C162.588 143.4 161.283 143.088 160.101 142.491C158.92 141.894 157.895 141.028 157.109 139.963ZM242.189 156.862C241.42 155.811 240.907 154.596 240.688 153.312C240.47 152.028 240.554 150.712 240.932 149.466L285.746 5.91673C286.288 4.20256 287.361 2.70525 288.81 1.64157C290.259 0.577888 292.009 0.00303313 293.807 0.00022592H384.508C385.849 -0.00958885 387.172 0.30052 388.369 0.904813C389.566 1.50911 390.601 2.39016 391.39 3.47484C392.178 4.55952 392.696 5.81654 392.901 7.14159C393.106 8.46663 392.992 9.82148 392.569 11.0937L347.532 154.384C346.996 156.101 345.924 157.602 344.474 158.666C343.023 159.731 341.271 160.303 339.472 160.301H248.993C247.668 160.302 246.362 159.992 245.18 159.394C243.998 158.797 242.973 157.929 242.189 156.862ZM1.58958 252.561C0.829691 251.506 0.324145 250.289 0.112468 249.006C-0.0992077 247.723 -0.0112757 246.409 0.369389 245.165L18.4504 187.221C18.9725 185.486 20.0372 183.964 21.4881 182.879C22.9389 181.794 24.6995 181.203 26.5111 181.193H327.122C328.463 181.183 329.786 181.493 330.983 182.098C332.18 182.702 333.215 183.583 334.004 184.668C334.792 185.752 335.31 187.01 335.515 188.335C335.72 189.66 335.606 191.014 335.183 192.287L317.065 250.047C316.535 251.771 315.466 253.279 314.015 254.351C312.564 255.423 310.808 256.001 309.004 256H8.39307C7.0702 255.993 5.76707 255.678 4.58642 255.082C3.40577 254.485 2.37986 253.622 1.58958 252.561Z" fill="white"/>
</svg>

<svg xmlns="http://www.w3.org/2000/svg" fill="none" viewBox="0 0 393 256"><path fill="#fff" d="M28.582 156.862a8.4 8.4 0 0 1-1.258-7.396L72.14 5.916A8.47 8.47 0 0 1 80.199 0h90.627a8.43 8.43 0 0 1 8.393 7.142 8.4 8.4 0 0 1-.332 3.952l-44.814 143.29a8.43 8.43 0 0 1-8.061 5.917H35.385a8.36 8.36 0 0 1-6.803-3.439m128.527-16.899a8.35 8.35 0 0 1-1.258-7.396l23.96-76.73a8.47 8.47 0 0 1 8.061-5.916h57.312a8.43 8.43 0 0 1 6.882 3.474 8.43 8.43 0 0 1 1.179 7.62l-24.034 76.433a8.5 8.5 0 0 1-8.098 5.954h-57.201a8.47 8.47 0 0 1-6.803-3.439m85.08 16.899a8.4 8.4 0 0 1-1.257-7.396l44.814-143.55A8.47 8.47 0 0 1 293.807 0h90.701a8.43 8.43 0 0 1 8.393 7.142 8.44 8.44 0 0 1-.332 3.952l-45.037 143.29a8.43 8.43 0 0 1-8.06 5.917h-90.479a8.43 8.43 0 0 1-6.804-3.439m-240.6 95.699a8.43 8.43 0 0 1-1.22-7.396l18.081-57.944a8.47 8.47 0 0 1 8.061-6.028h300.611a8.432 8.432 0 0 1 8.061 11.094l-18.118 57.76a8.43 8.43 0 0 1-8.061 5.953H8.394a8.55 8.55 0 0 1-6.804-3.439"/></svg>
